public/assets/svg/ditch.svg

<svg width="1013" height="276" viewBox="0 0 1013 276" fill="none" xmlns="http://www.w3.org/2000/svg">
<path d="M-0.000976562 264.544C1.31006 250.994 -0.000976562 235 8.49958 220C318.999 191 433.759 152.338 439.155 148.872C443.353 146.175 441.592 140.428 436.623 140.041C418.32 138.619 399.971 136.867 381.869 133.709C371.989 131.985 361.996 129.917 352.667 126.136C344.671 122.895 335.488 117.406 331.037 109.766C326.35 101.715 327.976 92.4234 333.845 85.4573C338.813 79.5585 345.301 75.9125 352.256 72.9575C367.757 66.3733 383.985 62.0812 400.466 59.0869C413.565 56.7105 426.85 55.0533 439.881 52.5084C452.671 50.014 465.714 49.0814 478.447 46.2669C490.933 43.5085 503.137 39.3063 514.464 33.3457C517.075 31.975 521.768 29.5368 522.167 26.1942C522.814 20.8235 511.836 19.801 508.539 19.1606C500.847 17.6718 493.094 16.5483 485.323 15.6101C469.737 13.7281 454.072 12.6157 438.469 10.8854C432.043 10.172 425.595 9.63264 419.192 8.70569C418.877 8.66075 415.292 8.19446 414.026 7.92481C413.936 7.90795 413.942 7.77312 414.026 7.75627C421.324 6.1945 428.363 4.97542 435.622 3.94734C461.685 0.250774 487.889 -0.833478 514.16 0.627172C536.498 1.86873 558.493 5.13272 579.459 13.4809C588.945 17.2561 596.71 23.3571 602.658 31.5087C605.19 34.9749 607.261 39.1153 608.296 43.2557C610.558 52.2893 606.81 60.0026 598.466 65.1542C589.159 70.8957 577.669 73.3395 567.119 75.9686C556.108 78.7158 544.989 81.0472 533.876 83.4404C529.617 84.3561 525.346 85.2775 521.182 86.564C518.15 87.4965 513.17 89.4516 513.311 93.4459C513.35 94.6256 513.958 95.7155 514.864 96.4795C518.932 99.9177 523.793 102.058 528.604 104.199C534.011 106.603 539.593 108.575 545.136 110.637C555.945 114.653 566.844 118.434 577.664 122.423C608.099 133.647 632.203 147.068 659.999 164C686.366 180.062 701.664 200.629 728.999 215C741.766 221.713 774.13 230.157 787.499 235.5C799.113 240.14 813.638 241.517 825.499 245.5C839.499 250.201 900.331 258.916 910.999 261C962.782 271.118 1011.39 275.926 1012.5 275.999C1012.5 276.117 12.0899 264.544 8.49999 264.544H-0.000976562Z" fill="url(#paint0_linear_1_856)"/>
<defs>
<linearGradient id="paint0_linear_1_856" x1="491.989" y1="-79.5866" x2="500.412" y2="242.742" gradientUnits="userSpaceOnUse">
<stop stop-color="#3D90E1"/>
<stop offset="1" stop-color="#E6EBF0"/>
</linearGradient>
</defs>
</svg>

<svg width="1013" height="276" fill="none" xmlns="http://www.w3.org/2000/svg"><path d="M-.001 264.544c1.311-13.55 0-29.544 8.5-44.544 310.5-29 425.26-67.662 430.656-71.128 4.198-2.697 2.437-8.444-2.532-8.831-18.303-1.422-36.652-3.174-54.754-6.332-9.88-1.724-19.873-3.792-29.202-7.573-7.996-3.241-17.179-8.73-21.63-16.37-4.687-8.051-3.061-17.343 2.808-24.309 4.968-5.898 11.456-9.544 18.411-12.5 15.501-6.584 31.729-10.876 48.21-13.87 13.099-2.377 26.384-4.034 39.415-6.579 12.79-2.494 25.833-3.427 38.566-6.241 12.486-2.759 24.69-6.96 36.017-12.921 2.611-1.371 7.304-3.81 7.703-7.152.647-5.37-10.331-6.393-13.628-7.033-7.692-1.49-15.445-2.613-23.216-3.55-15.586-1.883-31.251-2.995-46.854-4.726-6.426-.713-12.874-1.252-19.277-2.18-.315-.044-3.9-.51-5.166-.78-.09-.017-.084-.152 0-.169 7.298-1.562 14.337-2.78 21.596-3.809C461.685.251 487.889-.833 514.16.627c22.338 1.242 44.333 4.506 65.299 12.854 9.486 3.775 17.251 9.876 23.199 18.028 2.532 3.466 4.603 7.606 5.638 11.747 2.262 9.033-1.486 16.747-9.83 21.898-9.307 5.742-20.797 8.186-31.347 10.815-11.011 2.747-22.13 5.078-33.243 7.471-4.259.916-8.53 1.838-12.694 3.124-3.032.933-8.012 2.888-7.871 6.882.039 1.18.647 2.27 1.553 3.034 4.068 3.438 8.929 5.578 13.74 7.719 5.407 2.404 10.989 4.376 16.532 6.438 10.809 4.016 21.708 7.797 32.528 11.786 30.435 11.224 54.539 24.645 82.335 41.577 26.367 16.062 41.665 36.629 69 51 12.767 6.713 45.131 15.157 58.5 20.5 11.614 4.64 26.139 6.017 38 10 14 4.701 74.832 13.416 85.5 15.5 51.783 10.118 100.391 14.926 101.501 14.999 0 .118-1000.41-11.455-1004-11.455H-.001Z" fill="url(#a)"/><defs><linearGradient id="a" x1="491.989" y1="-79.587" x2="500.412" y2="242.742" gradientUnits="userSpaceOnUse"><stop stop-color="#3D90E1"/><stop offset="1" stop-color="#E6EBF0"/></linearGradient></defs></svg>
